X: 1
T:College of Piping 'Summerside' PEI
M:C|
L:1/8
Q:80
C:R.S. MacDonald
S:Hornpipe
K:HP
|: {g}c/2d/2|
{gef}e{A}e/2d/2{g}c/2{d}A/2{gAGAG}A|
{g}c/2e/2{A}e/2d/2{g}c/2{d}A/2{g}B/2c/2|  !
{Gdc}d{g}G/2d/2{g}B/2d/2{G}d/2e/2|
{g}G/2{d}B/2{G}B/2d/2{gde}d/2G/2{g}B/2d/2| |
{gef}e{A}e/2d/2{g}c/2{d}A/2{gAGAG}A|  !
{g}c/2e/2{A}e/2d/2{g}c/2{d}A/2{g}B/2c/2|
{Gdc}d{g}G/2d/2{g}B/2d/2{G}d/2e/2|
{g}c/4e3/4{g}A{GAG}A:| |:  !
{g}c/2d/2|
{gef}e{A}e/2a/2c/2e/2{A}e/2f/2|
{g}e/2{d}A/2{gAGAG}A{gef}ed/2c/2|  !
{Gdc}d{g}d/2g/2{a}B/2d/2{G}d/2e/2|
{g}G/2{d}B/2{G}B/2d/2{gde}d/2G/2{g}B/2d/2| |
{gef}e{A}e/2a/2c/2e/2{A}e/2f/2|  !
{g}e/2{d}A/2{gAGAG}A{gef}ed/2c/2|
{Gdc}d{g}G/2d/2{g}B/2d/2{G}d/2e/2|
{g}c/4e3/4{g}A{GAG}A:| |:  !
A|
A/2e/2{A}e/2d/2{g}c/2{d}A/2{gAGAG}A|
A/2e/2{A}e/2d/2{g}c/2{d}A/2{gAGAG}A|
{g}c/2d/2{g}c/2d/2{g}G/2d/2{g}B/2d/2|  !
{gde}d/2G/2{g}B/2d/2{g}G2| |
G/2e/2{A}e/2d/2{g}c/2{d}A/2{gAGAG}A|
A/2e/2{A}e/2d/2{g}c/2{d}A/2{g}B/2c/2|  !
{Gdc}d{g}G/2d/2{g}B/2d/2{G}d/2e/2|
{g}c/4e3/4{g}A{GAG}A:| [|
{g}c/2d/2|  !
e/2{g}e/2{A}e/2a/2c/2e/2{g}e/2A/2|
{g}e/2{A}e/2{g}A/2e/2{g}c/2d/2{g}e/2c/2|
{g}d/2{G}d/2{g}G/2d/2{g}B/2d/2{G}d/2G/2|  !
{g}B/2{G}B/2{g}G/2d/2{g}B/2c/2{gde}d/2B/2| |
e/2{g}e/2{A}e/2a/2c/2e/2{g}e/2A/2|
{g}e/2{A}e/2{g}A/2e/2{g}c/2d/2{g}e/2c/2|  !
{g}d/2{G}d/2{g}G/2d/2{g}B/2d/2{G}d/2B/2|
{g}c/4e3/4{g}A{GAG}A{g}c/2d/2| |
e/2{g}e/2{A}e/2a/2c/2e/2{g}e/2A/2|  !
{g}e/2{A}e/2{g}A/2e/2{g}c/2d/2{g}e/2c/2|
{g}d/2{G}d/2{g}G/2d/2{g}B/2d/2{G}d/2G/2|
{g}B/2{G}B/2{g}G/2d/2{g}B/2c/2{gde}d/2B/2| |  !
{gef}ee/2d/2{g}c/2{d}A/2{gAGAG}A|
A/2e/2{A}e/2d/2{g}c/2{d}A/2{g}B/2c/2|
{Gdc}d{g}G/2d/2{g}B/2c/2{gde}d/2B/2|  !
{g}c/4e3/4{g}A{GAG}A|]
